X:1
T:[ID 1-60a]
T:[ID 1-60a]
T:Bezeichnung standardisiert: Menuett Menuet
T:Urheber unbekannt Datum in der hier transkribierten schriftlichen Quelle: vermutlich vor 1767
C:Urheber unbekannt
C:Datum in der hier transkribierten schriftlichen Quelle: vermutlich vor 1767
L:1/8
M:3/4
K:G
V:1 treble 
V:1
 g4 af | g4 af | g2 d2 c2 | B2 AB G2 | d4 e"^[sic]"c | d4 e"^[sic]"c | d2 F2 E2 | D6 :: DEFGAB | %9
 cdefga | b2 a2 g2 | f2 ef d2 | g4 af | g4 af | g2 dcBA | G6 :| %16

